src/images/search-icon.svg

<svg width="21" height="22" viewBox="0 0 21 22" fill="none" xmlns="http://www.w3.org/2000/svg">
<g filter="url(#filter0_d_10158_618)">
<path fill-rule="evenodd" clip-rule="evenodd" d="M11.7927 8.26389C10.3608 9.69581 8.03915 9.69581 6.60723 8.26389C5.1753 6.83197 5.1753 4.51036 6.60723 3.07844C8.03915 1.64652 10.3608 1.64652 11.7927 3.07844C13.2246 4.51036 13.2246 6.83197 11.7927 8.26389ZM12.2331 9.64685C10.2728 11.1462 7.45724 10.9995 5.66442 9.2067C3.7118 7.25408 3.7118 4.08825 5.66442 2.13563C7.61704 0.18301 10.7829 0.18301 12.7355 2.13563C14.5282 3.92838 14.675 6.7438 13.1758 8.70401L16.7425 12.2707L15.7997 13.2135L12.2331 9.64685Z" fill="white"/>
</g>
<defs>
<filter id="filter0_d_10158_618" x="0.199951" y="0.671387" width="20.5426" height="20.542" filterUnits="userSpaceOnUse" color-interpolation-filters="sRGB">
<feFlood flood-opacity="0" result="BackgroundImageFix"/>
<feColorMatrix in="SourceAlpha" type="matrix" values="0 0 0 0 0 0 0 0 0 0 0 0 0 0 0 0 0 0 127 0" result="hardAlpha"/>
<feOffset dy="4"/>
<feGaussianBlur stdDeviation="2"/>
<feComposite in2="hardAlpha" operator="out"/>
<feColorMatrix type="matrix" values="0 0 0 0 0 0 0 0 0 0 0 0 0 0 0 0 0 0 0.25 0"/>
<feBlend mode="normal" in2="BackgroundImageFix" result="effect1_dropShadow_10158_618"/>
<feBlend mode="normal" in="SourceGraphic" in2="effect1_dropShadow_10158_618" result="shape"/>
</filter>
</defs>
</svg>

<svg xmlns="http://www.w3.org/2000/svg" width="21" height="22" fill="none" xmlns:v="https://vecta.io/nano"><g filter="url(#A)"><path fill-rule="evenodd" d="M11.793 8.264a3.67 3.67 0 0 1-5.185 0 3.67 3.67 0 0 1 0-5.185 3.67 3.67 0 0 1 5.185 0 3.67 3.67 0 0 1 0 5.185zm.44 1.383c-1.96 1.499-4.776 1.353-6.569-.44a5 5 0 0 1 7.071-7.071 5 5 0 0 1 .44 6.568l3.567 3.567-.943.943-3.567-3.567z" fill="#fff"/></g><defs><filter id="A" x=".2" y=".671" width="20.543" height="20.542" filterUnits="userSpaceOnUse" color-interpolation-filters="sRGB"><feFlood flood-opacity="0" result="A"/><feColorMatrix in="SourceAlpha" values="0 0 0 0 0 0 0 0 0 0 0 0 0 0 0 0 0 0 127 0" result="B"/><feOffset dy="4"/><feGaussianBlur stdDeviation="2"/><feComposite in2="B" operator="out"/><feColorMatrix values="0 0 0 0 0 0 0 0 0 0 0 0 0 0 0 0 0 0 0.25 0"/><feBlend in2="A"/><feBlend in="SourceGraphic"/></filter></defs></svg>
